source/assets/img/azn_logo.svg

<svg width="40" height="40" viewBox="0 0 40 40" fill="none" xmlns="http://www.w3.org/2000/svg">
<path d="M40 0C40 2.09492 40 4.18984 40 6.28477C40 6.53717 40 6.78957 40 7.09245C39.9248 7.04197 39.8747 6.99149 39.8246 6.96625C37.5704 4.69464 35.3412 2.42304 33.087 0.1262C33.062 0.0757201 33.0119 0.05048 32.9868 0C35.3412 0 37.6706 0 40 0Z" fill="white"/>
<path d="M0 20.4166C0.100188 14.99 1.72824 10.371 5.28491 6.53454C8.44083 3.12714 12.3482 1.0827 16.9067 0.375976C22.0413 -0.431705 26.8003 0.628376 31.1584 3.53098C32.0601 4.13674 32.2605 5.22206 31.6594 6.1307C31.1334 6.8879 30.3068 7.08982 29.5304 6.55978C28.5786 5.92878 27.6018 5.3735 26.5498 4.89394C16.2805 0.426455 5.63557 7.19078 3.70695 17.0092C2.35441 23.8997 5.61052 31.0426 11.7721 34.6267C13.4001 35.5606 15.1284 36.2421 16.9818 36.5954C17.8835 36.7721 18.4346 37.5293 18.3594 38.4884C18.2843 39.3213 17.583 40.0028 16.7063 39.9776C16.1553 39.9523 15.5792 39.8261 15.0282 39.6999C7.58923 37.7817 1.90357 31.7241 0.400751 24.1268C0.300563 23.6473 0.225423 23.1425 0.175329 22.6377C0.0751408 21.83 0.0500939 21.0223 0 20.4166Z" fill="white"/>
<path d="M39.8748 20.2424C39.8999 29.6822 33.3626 37.86 24.2205 39.8792C23.7947 39.9801 23.3438 40.0306 22.9431 39.9801C22.1165 39.8792 21.5404 39.1472 21.5655 38.3395C21.5655 37.4561 22.1165 36.7999 22.9431 36.6232C25.7984 36.0427 28.3532 34.8564 30.5824 32.9634C33.8385 30.2123 35.7922 26.7039 36.3432 22.4636C36.8942 18.198 35.8923 14.2858 33.563 10.7017C33.3125 10.3484 33.1121 9.96976 33.1873 9.51544C33.3125 8.78348 33.7884 8.37963 34.4396 8.15247C35.1159 7.92531 35.717 8.07675 36.243 8.58156C36.3933 8.733 36.5185 8.93492 36.6438 9.13684C38.4221 11.8628 39.449 14.8663 39.7997 18.1223C39.8247 18.4756 39.8748 18.829 39.8999 19.1824C39.8999 19.5105 39.8748 19.8891 39.8748 20.2424Z" fill="white"/>
<path d="M20.1379 33.7458C14.2519 33.6953 9.04209 29.8084 7.23871 24.1294C6.88805 22.9936 7.46413 22.2111 8.31573 21.9335C9.31761 21.6054 10.1942 22.0849 10.5449 23.1198C11.5468 26.2243 13.5505 28.4202 16.5562 29.6065C21.816 31.6509 27.7772 28.6978 29.4804 23.2207C29.9313 21.7316 31.3339 21.6559 32.1604 22.1607C32.8117 22.5645 33.0872 23.2207 32.8618 23.9779C32.3358 25.7447 31.4842 27.3601 30.307 28.7735C28.2531 31.2471 25.6733 32.8624 22.5424 33.4682C21.7159 33.5944 20.9143 33.6449 20.1379 33.7458Z" fill="#E74A26"/>
<path d="M19.9123 6.7644C25.7733 6.84012 30.933 10.6514 32.7614 16.2547C33.1371 17.4409 32.5109 18.1981 31.7345 18.4505C30.7326 18.7787 29.8059 18.3243 29.4803 17.2895C28.7038 14.9422 27.3012 13.0996 25.2223 11.7872C19.8121 8.35453 12.5735 11.0552 10.5948 17.239C10.1941 18.501 9.11707 18.7282 8.31556 18.4505C7.38883 18.1477 6.96303 17.34 7.26359 16.4061C7.78958 14.715 8.61613 13.1754 9.74324 11.7872C11.7971 9.28841 14.402 7.64781 17.608 7.04205C18.3344 6.8906 19.1359 6.84012 19.9123 6.7644Z" fill="#E74A26"/>
<path d="M20.0377 13.4529C23.1686 13.4529 26.0239 15.9012 26.5248 19.0562C26.6 19.561 26.6501 20.0658 26.6 20.5706C26.5248 21.454 25.6983 22.0345 24.7966 21.984C23.8448 21.9083 23.2186 21.2773 23.1936 20.3434C23.1686 18.8795 22.5424 17.8194 21.2149 17.2136C20.6639 16.9612 20.0627 16.8855 19.4366 16.936C18.6351 17.0117 17.9588 16.5574 17.6833 15.7497C17.4328 14.9925 17.7334 14.2101 18.4096 13.8062C18.9356 13.4781 19.4867 13.4529 20.0377 13.4529Z" fill="#E74A26"/>
<path d="M19.9623 26.931C16.7563 26.9058 13.926 24.508 13.4 21.3025C13.3249 20.8987 13.2998 20.4696 13.2998 20.0657C13.2998 18.9299 14.3518 18.2232 15.5039 18.5513C16.2553 18.7533 16.7062 19.3338 16.7312 20.1415C16.8064 22.2111 18.3593 23.6498 20.4131 23.4731C21.415 23.3974 22.1664 24.2051 22.2666 25.0128C22.3668 25.9719 21.7156 26.7796 20.7388 26.9058C20.4883 26.9058 20.2128 26.9058 19.9623 26.931Z" fill="#E74A26"/>
</svg>

<svg width="40" height="40" fill="none" xmlns="http://www.w3.org/2000/svg"><path d="M40 0v7.092c-.075-.05-.125-.1-.175-.126-2.255-2.271-4.484-4.543-6.738-6.84-.025-.05-.075-.076-.1-.126H40zM0 20.417C.1 14.99 1.728 10.37 5.285 6.535 8.44 3.127 12.348 1.083 16.907.376 22.04-.432 26.8.628 31.158 3.531c.902.606 1.102 1.691.501 2.6-.526.757-1.352.959-2.129.429a21.496 21.496 0 00-2.98-1.666C16.28.426 5.636 7.19 3.707 17.009 2.354 23.9 5.61 31.043 11.772 34.627c1.628.934 3.356 1.615 5.21 1.968.902.177 1.453.934 1.377 1.893-.075.833-.776 1.515-1.653 1.49-.55-.026-1.127-.152-1.678-.278C7.59 37.782 1.904 31.724.401 24.127c-.1-.48-.176-.985-.226-1.49-.1-.807-.125-1.615-.175-2.22zm39.875-.175c.025 9.44-6.512 17.618-15.654 19.637-.426.101-.877.152-1.278.101-.827-.1-1.403-.833-1.378-1.64 0-.884.551-1.54 1.378-1.717 2.855-.58 5.41-1.767 7.64-3.66 3.256-2.75 5.21-6.26 5.76-10.5.551-4.265-.45-8.177-2.78-11.761-.25-.354-.45-.732-.376-1.187.126-.732.601-1.135 1.253-1.363.676-.227 1.277-.075 1.803.43.15.151.276.353.4.555 1.78 2.726 2.806 5.73 3.157 8.985.025.354.075.707.1 1.06 0 .329-.025.707-.025 1.06z" fill="#fff"/><path d="M20.138 33.746c-5.886-.05-11.096-3.938-12.9-9.617-.35-1.135.226-1.918 1.078-2.196 1.002-.328 1.878.152 2.229 1.187 1.002 3.104 3.005 5.3 6.011 6.486 5.26 2.045 11.221-.908 12.924-6.385.451-1.49 1.854-1.565 2.68-1.06.652.403.927 1.06.702 1.817a13.422 13.422 0 01-2.555 4.795c-2.054 2.474-4.634 4.09-7.765 4.695-.826.126-1.628.177-2.404.278zm-.226-26.982c5.861.076 11.021 3.887 12.85 9.49.375 1.187-.251 1.944-1.027 2.197-1.002.328-1.93-.127-2.255-1.162-.776-2.347-2.179-4.19-4.258-5.502-5.41-3.432-12.649-.732-14.627 5.452-.4 1.262-1.478 1.49-2.28 1.212-.926-.303-1.352-1.111-1.051-2.045a13.74 13.74 0 012.48-4.619c2.053-2.499 4.658-4.14 7.864-4.745.726-.151 1.528-.202 2.304-.278z" fill="#E74A26"/><path d="M20.038 13.453c3.13 0 5.986 2.448 6.487 5.603.075.505.125 1.01.075 1.515-.075.883-.902 1.463-1.803 1.413-.952-.076-1.578-.707-1.603-1.64-.025-1.465-.652-2.525-1.98-3.13-.55-.253-1.151-.328-1.777-.278-.802.076-1.478-.379-1.754-1.186-.25-.758.05-1.54.727-1.944.526-.328 1.077-.353 1.628-.353zm-.076 13.478c-3.206-.025-6.036-2.423-6.562-5.629a6.87 6.87 0 01-.1-1.236c0-1.136 1.052-1.843 2.204-1.515.751.202 1.202.783 1.227 1.59.075 2.07 1.628 3.509 3.682 3.332 1.002-.076 1.753.732 1.854 1.54.1.959-.551 1.767-1.528 1.893-.25 0-.526 0-.777.025z" fill="#E74A26"/></svg>
